Surfn-Breeze-Dark/16x16/mimetypes/application-x-java-archive.svg

<svg width="16" xmlns="http://www.w3.org/2000/svg" height="16" viewBox="0 0 16 16">
 <path fill="#ff8b23" d="m7 2v3h1v-3zm-2 1v2h1v-2zm4 0v2h1v-2zm-6 1v1h1v-1zm-1 2v4c0 1.813 1.01 3 3 3h-2v1h8v-1h-2c1.572 0 2.507-.727 3-2h1c1 0 1-.003 1-1.094v-1.094c0-1.818 0-1.813-1-1.813h-1v-1zm1 1h8v3c0 1.511-1.338 2-3 2h-2c-1.662 0-3-.489-3-2zm9 1h1v2h-1z"/>
</svg>

<?xml version="1.0" encoding="UTF-8" standalone="no"?>
<svg xmlns="http://www.w3.org/2000/svg" width="16" height="16" version="1.1" viewBox="0 0 16 16">
 <g transform="translate(0,-1036.3622)">
  <path style="fill:#16907d;fill-opacity:1" d="M 7 2 L 7 5 L 8 5 L 8 2 L 7 2 z M 5 3 L 5 5 L 6 5 L 6 3 L 5 3 z M 9 3 L 9 5 L 10 5 L 10 3 L 9 3 z M 3 4 L 3 5 L 4 5 L 4 4 L 3 4 z M 2 6 L 2 10 C 2 11.8131 3.0056 13 5 13 L 3 13 L 3 14 L 11 14 L 11 13 L 9 13 C 10.572394 13 11.507251 12.2725 12 11 L 13 11 C 14 11 14 10.9971 14 9.90625 L 14 8.8125 C 14 6.9943 14 7 13 7 L 12 7 L 12 6 L 2 6 z M 3 7 L 11 7 L 11 7.46875 L 11 8 L 11 10 C 11 11.5109 9.6619999 12 8 12 L 6 12 C 4.338 12 3 11.5109 3 10 L 3 7 z M 12 8 L 12.5 8 L 13 8 L 13 9 L 13 10 L 12 10 L 12 8 z" transform="translate(0,1036.3622)"/>
 </g>
</svg>
